icon-themes/breeze_svg/cmd/sc_flowchartshapes.flowchart-direct-access-storage.svg

<svg viewBox="0 0 16 16" xmlns="http://www.w3.org/2000/svg"><path d="m10 2a3.9999999 5.9999878 0 0 0 -4 6 3.9999999 5.9999878 0 0 0 4 6 3.9999999 5.9999878 0 0 0 4-6 3.9999999 5.9999878 0 0 0 -4-6z" fill="#b3b3b3"/><path d="m6 2c-2.2091386 0-4 2.6862985-4 6 0 3.313702 1.7908614 6 4 6h4c-2.2091387 0-4-2.686298-4-6 0-3.3137015 1.7908613-6 4-6z" fill="#4d4d4d"/></svg>

<svg xmlns="http://www.w3.org/2000/svg" viewBox="0 0 16 16">
 <path 
     style="fill:#b3b3b3" 
     d="M 10 2 A 3.9999999 5.9999878 0 0 0 6 8 A 3.9999999 5.9999878 0 0 0 10 14 A 3.9999999 5.9999878 0 0 0 14 8 A 3.9999999 5.9999878 0 0 0 10 2 z "
     />
 <path 
     style="fill:#4d4d4d" 
     d="M 6 2 C 3.7908614 2 2 4.6862985 2 8 C 2 11.313702 3.7908614 14 6 14 L 10 14 C 7.7908613 14 6 11.313702 6 8 C 6 4.6862985 7.7908613 2 10 2 L 6 2 z "
     />
 </svg>
